public/avatar/item0/70.svg

<svg xmlns:xlink="http://www.w3.org/1999/xlink" height="58.65" width="49.15" xmlns="http://www.w3.org/2000/svg"><use height="15.5" transform="translate(6.05 10.7)" width="36.2" xlink:href="#a"/><defs><use height="15.5" width="36.2" xlink:href="#b" id="g"/><use height="11.95" width="30.1" xlink:href="#c" id="h"/><use height="6.35" width="25.05" xlink:href="#d" id="i"/><use height="3.95" width="21.9" xlink:href="#e" id="j"/><use height="1.2" width="19.2" xlink:href="#f" id="k"/><path d="M12.35-4.9q2.55 1.55 2.7 6.1.15 4.55-2.2 4.75l-5-.6q-3.85-.8-4.4-1.5Q2.3 2.5 1.85.05v-.1q-.05-1.05.4-2.55.65-2 1.95-2.45 4.6-2 8.15.15m-24.7 0q3.55-2.15 8.15-.15 1.3.45 1.95 2.45.45 1.5.4 2.55v.1q-.45 2.45-1.6 3.8-.55.7-4.4 1.5l-5 .6q-2.35-.2-2.2-4.75.15-4.55 2.7-6.1" transform="translate(15.05 6)" id="c" fill="#a06a0a" fill-rule="evenodd"/><path d="M-4.75-1.2q-.1.25-.85.25l-1 .3Q-10.15.8-10.75 3.1L-11.9 2l-.65-1.55.25-1.5v-.05q.2-.85.75-1.35l1.55-.5q2.4-.6 3.95.3l.85.65q.6.6.45.8m10.4-1.2q.35-.3 1.6-.55 2.55-.55 3.95.3l.85.65.45.85-1.9.55Q7.1.7 6.5 3.15L5.35 2Q4.7.95 4.7.45q0-1.65.55-2.25l.4-.6" transform="translate(12.55 3.2)" id="d" fill="#cc8621" fill-rule="evenodd"/><path d="m-9.1-.05-1.1.85-.55.95.1.05-.1.15-.1-.1.1-.1-.2-.7.05-1.05q.15-1.1 1.05-1.55l2-.4q1.65-.15 1.55.55L-9.1-.05m17.2 0L7.05.8l-.55 1h.1l-.1.15-.1-.05.1-.1q-.3-.15-.2-.7L6.35.05q.15-1.2 1.05-1.6l2-.4q1.65-.1 1.55.6Q9.7-.9 8.1-.05" transform="translate(10.95 2)" id="e" fill="#e8a64d" fill-rule="evenodd"/><path d="m-7.75-.55-.1.1h.25q.2.5-1.85 1.05-.5-.55.5-1.05l1.2-.1M9.45-.6l-.1.05.25.05Q9.8 0 7.75.55q-.5-.55.5-1.05l1.2-.1" transform="translate(9.6 .6)" id="f" fill="#f4c587" fill-rule="evenodd"/><g id="a" transform="translate(18.1 7.75)"><use height="15.5" transform="translate(-18.1 -7.75)" width="36.2" xlink:href="#g"/><use height="11.95" transform="translate(-15.25 -5.8)" width="30.1" xlink:href="#h"/><use height="6.35" transform="translate(-14.75 -4.85)" width="25.05" xlink:href="#i"/><use height="3.95" transform="translate(-13.8 -4.35)" width="21.9" xlink:href="#j"/><use height="1.2" transform="translate(-13.25 -3.8)" width="19.2" xlink:href="#k"/></g><g id="b" fill-rule="evenodd"><path d="m-11.15-6.95 2.3-.2L-4.9-7q1.25.4 2.85 1.35l1.15 1 .85 1q.8.25 2.2-1.65l.9-.75.75-.7.6-.35.9-.15 1.95-.5q2.15-.15 4.05.65 4.55 2.05 5.35 5.15.25.95.1 1.85l-.5 1.85-.4 1.7V5.4q-.35 1.15-.8 1.55l-1.7.65-4.05.15-1.95-.4L1.9 5.5Q1 5.05.85 4.45L.6 3.6q-.15-.65-.45-.7-.45-.1-.85 1.35-.2 1.05-1.2 1.4l-3.8 1-4 .95-4.3-.1q-1.7-.25-2.35-2.35l-.4-1.85v-.65L-17 1.5V.85l-.15-.65.1.1.4-1.65.5-1.6q.4-1.2 1.1-1.85l.9-.85L-13-6.2l1.85-.75" fill="#050008" transform="translate(18.1 7.75)"/><path d="M14.6-.05q1.85-1.3 2.7-.25 1.35 1.6.35 3.9-.9 2-1.8 2.2-.45.15-1.75-.8l-1.2-.95q-1.4-1.8 1.7-4.1" fill="#020002" transform="translate(18.1 7.75)"/><path d="M16.05 4.45V-.2l1.35 1.35-1.35 3.3" fill="#4f4f4f" transform="translate(18.1 7.75)"/><path d="M-14.65-.15q3.1 2.3 1.7 4.1-2.2 1.95-2.95 1.75-.9-.2-1.75-2.2-1.05-2.3.3-3.9.85-1.05 2.7.25" fill="#020002" transform="translate(18.1 7.75)"/><path d="m-15.95 4.45-1.4-3.3 1.4-1.35v4.65" fill="#4f4f4f" transform="translate(18.1 7.75)"/></g></defs></svg>

<?xml version="1.0" encoding="UTF-8" standalone="no"?>
<svg xmlns:xlink="http://www.w3.org/1999/xlink" height="58.65px" width="49.15px" xmlns="http://www.w3.org/2000/svg">
  <g transform="matrix(1.0, 0.0, 0.0, 1.0, 24.1, 18.1)">
    <use height="15.5" transform="matrix(1.0, 0.0, 0.0, 1.0, -18.05, -7.4)" width="36.2" xlink:href="#sprite0"/>
  </g>
  <defs>
    <g id="sprite0" transform="matrix(1.0, 0.0, 0.0, 1.0, 18.1, 7.75)">
      <use height="15.5" transform="matrix(1.0, 0.0, 0.0, 1.0, -18.1, -7.75)" width="36.2" xlink:href="#sprite1"/>
      <use height="11.95" transform="matrix(1.0, 0.0, 0.0, 1.0, -15.25, -5.8)" width="30.1" xlink:href="#sprite2"/>
      <use height="6.35" transform="matrix(1.0, 0.0, 0.0, 1.0, -14.75, -4.85)" width="25.05" xlink:href="#sprite3"/>
      <use height="3.95" transform="matrix(1.0, 0.0, 0.0, 1.0, -13.8, -4.35)" width="21.9" xlink:href="#sprite4"/>
      <use height="1.2" transform="matrix(1.0, 0.0, 0.0, 1.0, -13.25, -3.8)" width="19.2" xlink:href="#sprite5"/>
    </g>
    <g id="sprite1" transform="matrix(1.0, 0.0, 0.0, 1.0, 18.1, 7.75)">
      <use height="15.5" transform="matrix(1.0, 0.0, 0.0, 1.0, -18.1, -7.75)" width="36.2" xlink:href="#shape0"/>
    </g>
    <g id="shape0" transform="matrix(1.0, 0.0, 0.0, 1.0, 18.1, 7.75)">
      <path d="M-11.15 -6.95 L-8.85 -7.15 -4.9 -7.0 Q-3.65 -6.6 -2.05 -5.65 L-0.9 -4.65 -0.05 -3.65 Q0.75 -3.4 2.15 -5.3 L3.05 -6.05 3.8 -6.75 4.4 -7.1 5.3 -7.25 7.25 -7.75 Q9.4 -7.9 11.3 -7.1 15.85 -5.05 16.65 -1.95 16.9 -1.0 16.75 -0.1 L16.25 1.75 15.85 3.45 15.85 5.4 Q15.5 6.55 15.05 6.95 L13.35 7.6 9.3 7.75 7.35 7.35 1.9 5.5 Q1.0 5.05 0.85 4.45 L0.6 3.6 Q0.45 2.95 0.15 2.9 -0.3 2.8 -0.7 4.25 -0.9 5.3 -1.9 5.65 L-5.7 6.65 -9.7 7.6 -14.0 7.5 Q-15.7 7.25 -16.35 5.15 L-16.75 3.3 -16.75 2.65 -17.0 1.5 -17.0 0.85 -17.15 0.2 -17.05 0.3 -16.65 -1.35 -16.15 -2.95 Q-15.75 -4.15 -15.05 -4.8 L-14.15 -5.65 -13.0 -6.2 -11.15 -6.95" fill="#050008" fill-rule="evenodd" stroke="none"/>
      <path d="M14.6 -0.05 Q16.45 -1.35 17.3 -0.3 18.65 1.3 17.65 3.6 16.75 5.6 15.85 5.8 15.4 5.95 14.1 5.0 L12.9 4.05 Q11.5 2.25 14.6 -0.05" fill="#020002" fill-rule="evenodd" stroke="none"/>
      <path d="M16.05 4.45 L16.05 -0.2 17.4 1.15 16.05 4.45" fill="#4f4f4f" fill-rule="evenodd" stroke="none"/>
      <path d="M-14.65 -0.15 Q-11.55 2.15 -12.95 3.95 -15.15 5.9 -15.9 5.7 -16.8 5.5 -17.65 3.5 -18.7 1.2 -17.35 -0.4 -16.5 -1.45 -14.65 -0.15" fill="#020002" fill-rule="evenodd" stroke="none"/>
      <path d="M-15.95 4.45 L-17.35 1.15 -15.95 -0.2 -15.95 4.45" fill="#4f4f4f" fill-rule="evenodd" stroke="none"/>
    </g>
    <g id="sprite2" transform="matrix(1.0, 0.0, 0.0, 1.0, 15.05, 6.0)">
      <use height="11.95" transform="matrix(1.0, 0.0, 0.0, 1.0, -15.05, -6.0)" width="30.1" xlink:href="#shape1"/>
    </g>
    <g id="shape1" transform="matrix(1.0, 0.0, 0.0, 1.0, 15.05, 6.0)">
      <path d="M12.35 -4.9 Q14.9 -3.35 15.05 1.2 15.2 5.75 12.85 5.95 L7.85 5.35 Q4.0 4.55 3.45 3.85 2.3 2.5 1.85 0.05 L1.85 -0.05 Q1.8 -1.1 2.25 -2.6 2.9 -4.6 4.2 -5.05 8.8 -7.05 12.35 -4.9" fill="#a06a0a" fill-rule="evenodd" stroke="none"/>
      <path d="M-12.35 -4.9 Q-8.8 -7.05 -4.2 -5.05 -2.9 -4.6 -2.25 -2.6 -1.8 -1.1 -1.85 -0.05 L-1.85 0.05 Q-2.3 2.5 -3.45 3.85 -4.0 4.55 -7.85 5.35 L-12.85 5.95 Q-15.2 5.75 -15.05 1.2 -14.9 -3.35 -12.35 -4.9" fill="#a06a0a" fill-rule="evenodd" stroke="none"/>
    </g>
    <g id="sprite3" transform="matrix(1.0, 0.0, 0.0, 1.0, 12.55, 3.2)">
      <use height="6.35" transform="matrix(1.0, 0.0, 0.0, 1.0, -12.55, -3.2)" width="25.05" xlink:href="#shape2"/>
    </g>
    <g id="shape2" transform="matrix(1.0, 0.0, 0.0, 1.0, 12.55, 3.2)">
      <path d="M-4.75 -1.2 Q-4.85 -0.95 -5.6 -0.95 L-6.6 -0.65 Q-10.15 0.8 -10.75 3.1 L-11.9 2.0 -12.55 0.45 -12.3 -1.05 -12.3 -1.1 Q-12.1 -1.95 -11.55 -2.45 L-10.0 -2.95 Q-7.6 -3.55 -6.05 -2.65 L-5.2 -2.0 Q-4.6 -1.4 -4.75 -1.2" fill="#cc8621" fill-rule="evenodd" stroke="none"/>
      <path d="M5.65 -2.4 Q6.0 -2.7 7.25 -2.95 9.8 -3.5 11.2 -2.65 L12.05 -2.0 12.5 -1.15 10.6 -0.6 Q7.1 0.7 6.5 3.15 L5.35 2.0 Q4.7 0.95 4.7 0.45 4.7 -1.2 5.25 -1.8 L5.65 -2.4" fill="#cc8621" fill-rule="evenodd" stroke="none"/>
    </g>
    <g id="sprite4" transform="matrix(1.0, 0.0, 0.0, 1.0, 10.95, 2.0)">
      <use height="3.95" transform="matrix(1.0, 0.0, 0.0, 1.0, -10.95, -2.0)" width="21.9" xlink:href="#shape3"/>
    </g>
    <g id="shape3" transform="matrix(1.0, 0.0, 0.0, 1.0, 10.95, 2.0)">
      <path d="M-9.1 -0.05 L-10.2 0.8 -10.75 1.75 -10.65 1.8 -10.75 1.95 -10.85 1.85 -10.75 1.75 -10.95 1.05 -10.9 0.0 Q-10.75 -1.1 -9.85 -1.55 L-7.85 -1.95 Q-6.2 -2.1 -6.3 -1.4 L-9.1 -0.05" fill="#e8a64d" fill-rule="evenodd" stroke="none"/>
      <path d="M8.1 -0.05 L7.05 0.8 6.5 1.8 6.6 1.8 6.5 1.95 6.4 1.9 6.5 1.8 Q6.2 1.65 6.3 1.1 L6.35 0.05 Q6.5 -1.15 7.4 -1.55 L9.4 -1.95 Q11.05 -2.05 10.95 -1.35 9.7 -0.9 8.1 -0.05" fill="#e8a64d" fill-rule="evenodd" stroke="none"/>
    </g>
    <g id="sprite5" transform="matrix(1.0, 0.0, 0.0, 1.0, 9.6, 0.6)">
      <use height="1.2" transform="matrix(1.0, 0.0, 0.0, 1.0, -9.6, -0.6)" width="19.2" xlink:href="#shape4"/>
    </g>
    <g id="shape4" transform="matrix(1.0, 0.0, 0.0, 1.0, 9.6, 0.6)">
      <path d="M-7.75 -0.55 L-7.85 -0.45 -7.6 -0.45 Q-7.4 0.05 -9.45 0.6 -9.95 0.05 -8.95 -0.45 L-7.75 -0.55" fill="#f4c587" fill-rule="evenodd" stroke="none"/>
      <path d="M9.45 -0.6 L9.35 -0.55 9.6 -0.5 Q9.8 0.0 7.75 0.55 7.25 0.0 8.25 -0.5 L9.45 -0.6" fill="#f4c587" fill-rule="evenodd" stroke="none"/>
    </g>
  </defs>
</svg>
